X:1
T:Why So Pale and Wan ?
T:Why So Pale and Wan ?
T:Copyright © CPDL
T:Copyright © CPDL
T:Copyright © CPDL
T:Copyright © CPDL
T:Copyright © CPDL
Z:Copyright © CPDL
%%score 1 { ( 2 3 ) ( 4 5 ) }
L:1/8
Q:1/4=140
M:4/4
K:G
V:1 treble nm="P1"
V:2 treble nm="P2"
V:3 treble 
V:4 bass nm="P3"
V:5 bass 
V:1
"^Editor: John Henry Fowler""^(  Revision:   5 - 14 - 2008  )""^Vivace.""^From \"English Lyrics\" -  Set 3 -  Number 4""^Lyrics from Sir John Suckling  -  ( 1609 - 1642 )" z8 | %1
w: |
 z8 |"^Charles Hubert Hastings Parry""^( 1848 - 1918 )" z8 | z8 | B2 c2 d2 B2 | G3 F G E3 | %6
w: |||Why so pale and|wan, fond lov- er~?|
 G B3 A2 D2 | d8 | B2 c2 d2 B2 | A3 G A2 D2 |!<(! F2 A2!<)!!>(! B3!>)! ^C | D4 z4 | d B3 A3 B | %13
w: Pry- thee, why so|pale~?|Will, if look- ing|well can't move her|Look- ing ill pre-|vail~?|Pry- thee, why so|
 G4 z4 | z8 | z8 | z8 | B2 A2 G2 F2 | G3 A B E3 | B e3 B3 A | G4 z4 | B2 z A G2 E2 | A3 B A2 d2 | %23
w: pale~?||||Why so dull and|mute, young sin- ner~?|Pry- thee, why so|mute~?|Will, when speak- ing|well can't win her|
 F2 A2 G F3 | E6"^allargando" z2 | !>!A F3 E3"^a tempo" F | D6 z2 | z8 | z8 | B3 z A3!<(! G!<)! | %30
w: say- ing no- thing|do't~?|Pry- thee, why so|mute~?|||Quit, quit for|
 d8 | B4 F2 E2 | B8 | E4 D2 B2 | A2 D2 z4 | z2 D2 !>!d3 c | B3 A G2 =F2 | E4 !>!c A2 E | F2 D2 z4 | %39
w: shame~!|This shall not|move,|This can not|take her;|If of her-|self she will not|love No- thing will|make her|
 z8 | z2!f! D2 !>!d B3 | A2 G2 z4 | z8 |] %43
w: |The de- vil|take her~!||
V:2
 ([Bgb]2 [cc']2 [dfd']2 [Bgb]2) | ([Geg]2 [Aa]2 [B^db]2 [Gg]2) | ([Ece]2 [Ff]2 [Geg]2 [Aa]2) | %3
 (d2 cB [Ec]2) [Fd]2 | [B,GB]2 z2[K:bass] z (F,B,D) | z (G,CE[K:treble] GB,EG) | z (DGd) z (CFA) | %7
 z (B,DG BFGD) | z (B,DB) z (DGd) | z (A,DF A2) z2 | [A,FA]2 [F,DF]2 [G,E]4 | %11
 [F,D]2 ([Fdf]2 [Gdg]2 [cgc']2) | [Bgb]2 z2 [Fcd]2 z2 | ([Bgb]2 [cc']2 [dfd']2 [Bb]2) | %14
 ([Geg]2 [Aa]2) .[B^db]2 [Gg]2 | [Ece]3 [Ff] [Gg]2 [Aefa]2 | [B^db]2 z .f .B2 .F2 | %17
 B,4 !>![B,^DB]2 z B, | [G,E]2 z2 [EGe]2 z E | [B,EB]2 z2 [B,^DB]2 z2 | %20
 ([Geg]2 [Aa]2 [Bb]2) .[EG]2 | ([^CGB-]8 | [DB]2) z2 z4 | ([F,DF]2 [A,FA]2) .[G,EG]2 .[F,DF]2 | %24
 [E,E]8 | [A,DA]2 z2[K:bass] [G,A,]4 | ([Afa]2 [Bb]2 [cc']2) [Gcg]2 | ([Fdf]2 [Gg]2 [Aa]2) [EFe]2 | %28
 ([DGBd]2 [Ee]2 [Fdf]2) [CFc]2 | .[B,GB]2 .D2 z2 .[B,DB]2 | .[A,DA]2 D2 z2 [A,DA]2 | %31
 [G,B,G]2 B,2 z2 [G,B,G]2 | [F,B,F]2 B,2 z2 [F,B,F]2 | [E,G,E]2 G,2 [D,G,D]2[K:treble] [B,GB]2 | %34
 [A,FA]2 z A d2 C2 | B,2 z2 [DGd]2 z2 | z2 [=FG-]6 | G2 z2 [CEc]2 z2 | [DFA]2 z2 z2 [Fdf]2 | %39
 ([dg]2 [da]2 [gb]2) ^c2 | [DFBd]2 z2 [dfbd']2 z2 | .[F,=CD]2 .[G,B,G]2 z4 | .[Gdg]2 z2 z4 |] %43
V:3
 x8 | x8 | x8 | [DG]4 x4 | x4[K:bass] x4 | x4[K:treble] x4 | x8 | x8 | x8 | x8 | z4 D2 ^C2 | x8 | %12
 x8 | x8 | x8 | x8 | x8 | x8 | x8 | x8 | x8 | x8 | x8 | x8 | D2 [^G,B,]2 [A,^C-]2 [B,C]2 | %25
 x4[K:bass] (D,2 ^C,2) | x8 | x8 | x8 | x8 | x8 | x8 | x8 | x6[K:treble] x2 | x8 | x8 | %36
 x2 B,2 C2 D2 | E2 x2 x4 | x8 | G2 A2 B2 [GB]^C | x8 | x8 | x8 |] %43
V:4
 G,DGE D,A,FC | E,B,EE, B,,G,^DG, | C,G,^DG, EG,C,A, | B,,G,DG, A,,D,CD, | G,,D,G,E, D,,B,,D,F, | %5
 E,,B,,E,G, B,2 z2 | (B,,G, D2) (D,A, D2) | (G,,D,G,B, D2) z2 | G,,D,G,D, E,,D,G,D, | %9
 (F,,D,F,A, D2) z2 | [A,,,A,,]8 | [B,,,B,,]2 [=C,=C]D, [B,,B,]D,[A,,A,]E, | [D,D]2 z2 [D,A,D]2 z2 | %13
!f! G,DGE D,A,FC | E,B,EE, B,,G,^DG, | (C,G,CD E2) C,2 | [B,,F,^D]2 z F B,2 F,2 | %17
 B,,4 [B,,B,]2 z B,, | [E,,E,]2 z2 [E,B,]2 z E, | [G,,B,,G,]2 z2 [B,,F,]2 z2 | %20
 (E,B,FB, G2)!mf! z2 | ([E,,E,-]8 | [F,,E,]2) z2 z4 | z2 [F,,,F,,]2 [G,,,G,,]2 [^G,,,^G,,]2 | %24
 [A,,,A,,]2 [B,,,B,,]2 [A,,,A,,]2 [G,,,G,,]2 | [F,,,F,,]2 z2 [A,,,A,,]4 | [D,,D,]2 z2 D,A,EA, | %27
!f! D,A,DA, C,F,A,F, | B,,G,B,G, A,,D,A,D, | .[G,,D,G,]2 .D,2 z2 [G,,D,G,]2 | %30
 [F,,D,F,]2 D,2 z2 [F,,D,F,]2 | [E,,B,,E,]2 B,,2 z2 [E,,B,,E,]2 | [D,,B,,D,]2 B,,2 z2 [D,,B,,D,]2 | %33
 [C,,G,,C,]2 G,,2 [B,,,B,,]2 [G,,,G,,]2 | [D,,,D,,]2 z!<(! A,!<)! D2 [C,,C,]2 | %35
 [B,,,B,,]2 z2 [B,,D,G,B,]2 z2 | z2 G,6- | G,2 z2 A,2 z2 | [D,A,]2 z2!f! z2 [C,A,]D, | %39
 G,D,F,D, G,D, E,2 | [B,,,B,,]2 z2[K:treble] !>![B,FB]2 z2 | [D,,D,]2 [G,,,G,,]2 z4 | %42
!f! .[G,,D,B,]2 z2 z4 |] %43
V:5
 G,2 x2 D,2 x2 | E,2 x2 B,,2 x2 | C,2 x2 x2 C,2 | B,,2 x2 A,,2 x2 | G,,2 x2 D,,2 x2 | %5
 (E,,2 x2 x4) | B,,2 x2 D,2 x2 | G,,2 x2 x2 x2 | G,,2 x2 E,,2 x2 | F,,2 x2 x2 x2 | x8 | x8 | x8 | %13
 G,2 x2 D,2 x2 | E,2 x2 B,,2 x2 | C,2 x2 x2 x2 | x8 | x8 | x8 | x8 | x8 | x8 | x8 | x8 | x8 | x8 | %26
 x8 | D,2 x2 C,2 x2 | B,,2 x2 A,,2 x2 | x8 | x8 | x8 | x8 | x8 | x8 | x8 | x2 G,,2 A,,2 B,,2 | %37
 C,2 x2 A,,2 x2 | x8 | B,,2 A,,2 G,,2 E,,2 | x4[K:treble] x4 | x8 | x8 |] %43

